src/assets/apple.svg

<svg width="24" height="28" viewBox="0 0 24 28" fill="none" xmlns="http://www.w3.org/2000/svg">
<path d="M11.8339 6.72638C13.3695 6.72638 14.7165 6.12676 15.8751 4.9275C17.0336 3.72823 17.6129 2.33369 17.6129 0.743885C17.6129 0.569279 17.5991 0.321155 17.5716 -0.000488281C17.3693 0.0270811 17.2176 0.0500556 17.1164 0.0684352C15.7004 0.270611 14.4545 0.96444 13.3786 2.14989C12.3029 3.33538 11.765 4.60357 11.765 5.95447C11.765 6.11067 11.7879 6.36801 11.8339 6.72638ZM17.3371 27.803C18.4313 27.803 19.6404 27.0541 20.9645 25.5562C22.2886 24.0582 23.3 22.2984 23.9988 20.2766C21.3967 18.9349 20.0956 17.0097 20.0956 14.5009C20.0956 12.4056 21.1484 10.6137 23.254 9.12492C21.792 7.29615 19.8611 6.38177 17.4612 6.38177C16.4498 6.38177 15.5257 6.5334 14.689 6.83666L14.1648 7.02965L13.4614 7.30534C13.0017 7.47995 12.5833 7.56728 12.2063 7.56728C11.9121 7.56728 11.5258 7.46616 11.0477 7.26399L10.5098 7.04343L9.99952 6.83666C9.25471 6.52421 8.45476 6.36798 7.59964 6.36798C5.31009 6.36798 3.47111 7.13992 2.08266 8.68381C0.69421 10.2277 0 12.2632 0 14.7904C0 18.3468 1.11258 21.6321 3.33777 24.6464C4.88253 26.7508 6.29396 27.803 7.57204 27.803C8.11456 27.803 8.65246 27.6974 9.18576 27.486L9.86159 27.2103L10.3995 27.0173C11.1535 26.7508 11.8477 26.6176 12.4821 26.6176C13.1534 26.6176 13.9258 26.7876 14.7993 27.1276L15.2268 27.293C16.1187 27.633 16.8222 27.803 17.3371 27.803Z" fill="white"/>
</svg>

<svg xmlns="http://www.w3.org/2000/svg" width="24" height="28" fill="none"><path fill="#fff" d="M11.834 6.726q2.304 0 4.041-1.798 1.738-1.8 1.738-4.184 0-.262-.041-.744-.304.04-.456.068-2.123.304-3.737 2.082t-1.614 3.804q0 .235.069.772m5.503 21.077q1.64 0 3.628-2.247 1.986-2.247 3.034-5.28-3.903-2.012-3.903-5.775 0-3.143 3.158-5.376-2.193-2.743-5.793-2.743-1.517 0-2.772.455l-.524.193-.704.275q-.69.262-1.255.262-.441 0-1.158-.303l-.538-.22-.51-.207a6.1 6.1 0 0 0-2.4-.469q-3.435 0-5.517 2.316T0 14.79q0 5.335 3.338 9.856 2.317 3.157 4.234 3.157.814 0 1.614-.317l.676-.276.537-.193q1.132-.4 2.083-.4 1.007 0 2.317.51l.428.166q1.338.51 2.11.51"/></svg>
